icon/lg/openstack-icon.svg

<?xml version="1.0" encoding="UTF-8"?>
<svg viewBox="0 0 256 251" version="1.1" xmlns="http://www.w3.org/2000/svg" xmlns:xlink="http://www.w3.org/1999/xlink" preserveAspectRatio="xMidYMid" height="1em" width="1em">
  <g>
    <path d="M57.8196917,170.722795 L57.8196917,179.878808 C57.8196917,186.98261 63.5764029,192.739322 70.6802055,192.739322 L70.6802055,192.739322 L185.330319,192.739322 C192.434121,192.739322 198.190832,186.98261 198.190832,179.878808 L198.190832,179.878808 L198.190832,170.722795 L256,170.722795 L256,226.77443 C256,239.855951 245.296937,250.559013 232.215416,250.559013 L232.215416,250.559013 L23.7845838,250.559013 C10.7030627,250.559013 0,239.855951 0,226.77443 L0,226.77443 L0,170.722795 L57.8196917,170.722795 Z M57.8091675,96.3696608 L57.8091675,154.178828 L0,154.178828 L0,96.3696608 L57.8091675,96.3696608 Z M256,96.3696608 L256,154.178828 L198.190832,154.178828 L198.190832,96.3696608 L256,96.3696608 Z M232.215416,0 C245.296937,0 256,10.7030627 256,23.7951079 L256,23.7951079 L256,79.8362179 L198.190832,79.8362179 L198.190832,70.6802055 C198.190832,63.5764029 192.434121,57.8196917 185.330319,57.8196917 L185.330319,57.8196917 L70.6696814,57.8196917 C63.5658787,57.8196917 57.8091675,63.5764029 57.8091675,70.6802055 L57.8091675,70.6802055 L57.8091675,79.8362179 L0,79.8362179 L0,23.7845838 C0,10.7030627 10.7030627,0 23.7845838,0 L23.7845838,0 Z" fill="#DA1A32"/>
  </g>
</svg>

<svg width="256" height="251" xmlns="http://www.w3.org/2000/svg" preserveAspectRatio="xMidYMid"><path d="M57.82 170.723v9.156c0 7.104 5.756 12.86 12.86 12.86h114.65c7.104 0 12.86-5.756 12.86-12.86v-9.156H256v56.051c0 13.082-10.703 23.785-23.785 23.785H23.785C10.703 250.559 0 239.856 0 226.774v-56.051h57.82Zm-.01-74.353v57.809H0v-57.81h57.81Zm198.19 0v57.809h-57.81v-57.81H256ZM232.215 0C245.297 0 256 10.703 256 23.795v56.041h-57.81V70.68c0-7.104-5.756-12.86-12.86-12.86H70.67c-7.104 0-12.86 5.756-12.86 12.86v9.156H0V23.785C0 10.703 10.703 0 23.785 0Z" fill="#DA1A32"/></svg>
